X: 16
T: GE HO, DOBBIN
B: "Old English Country Dances", Frank Kidson ed., William Reeves pub., London 1890
Z: 2010-9-26 John Chambers <jc:trillian.mit.edu>
M: 6/8
L: 1/8
K: D
D |\
F>GA B>cA | B>dB A>Bc | d>ef B>cd |
e>cA d2 :||: c/d/ | e>fe e>cA | e>cA A>FG | A>BA A>GF |
G>EF G>FG | F2A FDF | G2B GEG | F>FA G>FE |
D2d D2 :| F2A FDF | G2B GEG | FAd Bed | cAc d2 |]


%%sep 1 1 500

%%sep 1 1 500

